packages/components/bolt-icons/src/svgs/product/industry/hospitality.svg

<?xml version="1.0" encoding="UTF-8" standalone="no"?>
<svg width="32px" height="32px" viewBox="0 0 32 32" version="1.1" xmlns="http://www.w3.org/2000/svg" xmlns:xlink="http://www.w3.org/1999/xlink">
    <!-- Generator: Sketch 47.1 (45422) - http://www.bohemiancoding.com/sketch -->
    <title>Icon/Industry/Healthcare</title>
    <desc>Created with Sketch.</desc>
    <defs></defs>
    <g id="Symbols" stroke="none" stroke-width="1" fill="none" fill-rule="evenodd">
        <g id="Icon/Industry/Healthcare" fill="#1F2555">
            <path d="M2,22 L4,15 L4,16 L28,16 L28,15 L30,22 L2,22 Z M30,28 L28,28 L4,28 L2,28 L2,24 L30,24 L30,28 Z M6,8 L10,8 L10,9.001 C10,9.553 10.448,10 11,10 L21,10 C21.553,10 22,9.553 22,9.001 L22,8 L26,8 L27.714,14.001 L4.286,14.001 L6,8 Z M12,8 L20,8 L20,6.001 L12,6.001 L12,8 Z M6,3.001 C6,2.448 6.448,2 7,2 L25,2 C25.553,2 26,2.448 26,3.001 L26,5 C26,5.553 25.553,6.001 25,6.001 L22,6.001 L22,5 C22,4.447 21.553,4 21,4 L11,4 C10.448,4 10,4.447 10,5 L10,6.001 L7,6.001 C6.448,6.001 6,5.553 6,5 L6,3.001 Z M31.556,22 L28,6.001 L28,2 C28,0.896 27.104,0 26,0 L6,0 C4.896,0 4,0.896 4,2 L4,6.001 L0.444,22 L0,22 L0,30 L2,30 L2,32 L4,32 L4,30 L28,30 L28,32 L30,32 L30,30 L32,30 L32,22 L31.556,22 Z" id="Page-1"></path>
        </g>
    </g>
</svg>

<svg id="a078b8dc-7868-47f4-bbea-acad42483355" data-name="Layer 1" xmlns="http://www.w3.org/2000/svg" viewBox="0 0 32 32"><title>hospitality</title><path id="ac4801dd-f41d-4bea-8bea-c1dd87578b4e" data-name="Page-1" d="M2,22l2-7v1H28V15l2,7Zm28,6H2V24H30ZM6,8h4V9a.94.94,0,0,0,1,1H21a.94.94,0,0,0,1-1V8h4l1.7,6H4.3Zm6,0h8V6H12ZM6,3A.94.94,0,0,1,7,2H25a.94.94,0,0,1,1,1V5a.94.94,0,0,1-1,1H22V5a.94.94,0,0,0-1-1H11a.94.94,0,0,0-1,1V6H7A.94.94,0,0,1,6,5ZM31.6,22,28,6V2a2,2,0,0,0-2-2H6A2,2,0,0,0,4,2V6L.4,22H0v8H2v2H4V30H28v2h2V30h2V22Z" fill="#1f2555" fill-rule="evenodd"/></svg>
